icon-svg/tailscale.svg

<svg xmlns="http://www.w3.org/2000/svg" fill="#44739e" viewBox="0 0 24 24"><path d="M18.982 17.364a1.748 1.748 0 0 1-1.748 1.748 1.748 1.748 0 0 1-1.748-1.748 1.748 1.748 0 0 1 1.748-1.748 1.748 1.748 0 0 1 1.748 1.748m-10.537 0a1.748 1.748 0 0 1-1.748 1.748 1.748 1.748 0 0 1-1.748-1.748 1.748 1.748 0 0 1 1.748-1.748 1.748 1.748 0 0 1 1.748 1.748m5.303-10.537A1.748 1.748 0 0 1 12 8.575a1.748 1.748 0 0 1-1.748-1.748A1.748 1.748 0 0 1 12 5.079a1.748 1.748 0 0 1 1.748 1.748m5.269 0a1.748 1.748 0 0 1-1.748 1.748 1.748 1.748 0 0 1-1.748-1.748 1.748 1.748 0 0 1 1.748-1.748 1.748 1.748 0 0 1 1.748 1.748m-10.538 0a1.748 1.748 0 0 1-1.748 1.748 1.748 1.748 0 0 1-1.748-1.748 1.748 1.748 0 0 1 1.748-1.748 1.748 1.748 0 0 1 1.748 1.748M2 2v20h20V2Zm4.7 17.229a1.865 1.865 0 1 1 1.865-1.865A1.868 1.868 0 0 1 6.7 19.229M4.891 12A1.807 1.807 0 1 1 6.7 13.807 1.806 1.806 0 0 1 4.891 12m1.84-3.308A1.866 1.866 0 1 1 8.6 6.827a1.868 1.868 0 0 1-1.869 1.865m5.235 10.383a1.807 1.807 0 1 1 1.806-1.806 1.807 1.807 0 0 1-1.806 1.806m0-5.268A1.807 1.807 0 1 1 13.772 12a1.807 1.807 0 0 1-1.806 1.807M12 8.692a1.866 1.866 0 1 1 1.865-1.865A1.868 1.868 0 0 1 12 8.692m5.234 10.537a1.865 1.865 0 1 1 1.866-1.865 1.868 1.868 0 0 1-1.866 1.865M15.428 12a1.807 1.807 0 1 1 1.806 1.807A1.807 1.807 0 0 1 15.428 12m1.841-3.308a1.866 1.866 0 1 1 1.865-1.865 1.868 1.868 0 0 1-1.865 1.865"/></svg>

<?xml version="1.0" encoding="UTF-8"?>
<svg width="24px" fill="#44739e" height="24px" viewBox="0 0 24 24" version="1.1" xmlns="http://www.w3.org/2000/svg" xmlns:xlink="http://www.w3.org/1999/xlink">
            <path d="m 18.981999,17.364 a 1.748,1.748 0 0 1 -1.748,1.748 1.748,1.748 0 0 1 -1.748,-1.748 1.748,1.748 0 0 1 1.748,-1.748 1.748,1.748 0 0 1 1.748,1.748 z m -10.5369989,0 A 1.748,1.748 0 0 1 6.697,19.112 1.748,1.748 0 0 1 4.949,17.364 1.748,1.748 0 0 1 6.697,15.616 1.748,1.748 0 0 1 8.4450001,17.364 Z M 13.748,6.8270001 A 1.748,1.748 0 0 1 12,8.5750002 1.748,1.748 0 0 1 10.252,6.8270001 a 1.748,1.748 0 0 1 1.748,-1.748 1.748,1.748 0 0 1 1.748,1.748 z m 5.268999,0 a 1.748,1.748 0 0 1 -1.748,1.7480001 1.748,1.748 0 0 1 -1.748,-1.7480001 1.748,1.748 0 0 1 1.748,-1.748 1.748,1.748 0 0 1 1.748,1.748 z m -10.537999,0 a 1.748,1.748 0 0 1 -1.7480001,1.7480001 1.748,1.748 0 0 1 -1.748,-1.7480001 1.748,1.748 0 0 1 1.748,-1.748 1.748,1.748 0 0 1 1.7480001,1.748 z M 2,2 V 22 H 22 V 2 Z M 6.7,19.229 A 1.865,1.865 0 1 1 8.565,17.364 1.868,1.868 0 0 1 6.7,19.229 Z M 4.891,12 A 1.807,1.807 0 1 1 6.7,13.807 1.806,1.806 0 0 1 4.891,12 Z M 6.731,8.692 A 1.866,1.866 0 1 1 8.6,6.827 1.868,1.868 0 0 1 6.731,8.692 Z m 5.235,10.383 a 1.807,1.807 0 1 1 1.806,-1.806 1.807,1.807 0 0 1 -1.806,1.806 z m 0,-5.268 A 1.807,1.807 0 1 1 13.772,12 1.807,1.807 0 0 1 11.966,13.807 Z M 12,8.692 A 1.866,1.866 0 1 1 13.865,6.827 1.868,1.868 0 0 1 12,8.692 Z m 5.234,10.537 A 1.865,1.865 0 1 1 19.1,17.364 1.868,1.868 0 0 1 17.234,19.229 Z M 15.428,12 A 1.807,1.807 0 1 1 17.234,13.807 1.807,1.807 0 0 1 15.428,12 Z m 1.841,-3.308 a 1.866,1.866 0 1 1 1.865,-1.865 1.868,1.868 0 0 1 -1.865,1.865 z"/>

</svg>
